img/skills-icon/jekyll.svg

<svg viewBox="0 0 960 489" xmlns="http://www.w3.org/2000/svg"><path d="M822.16 70.35c6.83-1.95 14.06-.92 20.95.22 14.26 2.74 28.04 7.83 40.84 14.64 7.21 4.04 14.53 8.41 19.86 14.86 2.82 3.27 4.46 8.52 1.55 12.25-4.78 5.17-11.01 9.4-13.9 16.03-32.94 85.76-65.99 171.48-98.91 257.25-3.66 10.5-11.85 19.26-21.96 23.83-10.18 4.61-22.26 4.83-32.6.58-9.43-3.82-17.23-11.39-21.45-20.63-4.99-10.63-5.05-23.39-.28-34.11 8.67-22.55 17.4-45.08 26.03-67.65-12.25 12.41-25.13 24.53-40.33 33.28-9.06 5.12-19.43 9.06-30.01 7.65-5.12-.63-10.43-2.61-13.55-6.94-3.93-5.31-3.88-12.39-2.87-18.64 1.31-8.16 4.57-15.82 7.95-23.31-13.9 13.83-28.24 27.81-45.87 36.81-9.95 5.05-22.02 8.07-32.76 3.67-6.17-2.35-9.87-8.79-10.04-15.21-.44-11.19 3.91-21.87 8.51-31.85-4.61 4.21-8.56 9.6-14.38 12.17-2.85.7-2.31-2.91-.62-3.94 10.66-9 19.95-19.51 28.45-30.56 15.5-20.4 30.37-41.31 43.83-63.12 2.75-4.57 5.9-9.2 6.5-14.64.2-1.52-.28-3.27-1.99-3.56-4.7.96-8.53 4.43-13.41 4.77.38-3.05 3.39-4.37 5.66-5.87 8.19-4.85 17.14-8.41 26.37-10.71 5.74-1.35 12.05-2.31 17.65.06 3.22 1.27 4.71 5.04 4.01 8.3-1.39 7.22-6.14 13.12-10.62 18.72-13.37 16.28-28.53 31-41.96 47.24-9.91 12.92-19.12 26.39-27.5 40.36-4.9 8.49-9.77 17.12-12.7 26.52-1.04 3.84-2.25 8.18-.41 11.97 1.9 3.47 6.44 3.83 9.92 3.11 12.21-2.12 22.83-9.08 32.75-16.14 14.01-10.41 27.54-21.77 38.27-35.64 17.49-22.51 34.03-45.81 48.93-70.12 2.66-4.53 5.84-9.47 5.07-14.98-.75-.99-1.7-1.29-2.86-.9-4.37.98-8 4.79-12.7 4.18 1.83-3.79 5.96-5.4 9.36-7.45 9.42-4.85 19.54-8.77 30.11-10.04 5.07-.32 12.39-.24 14.38 5.53 1.21 6.33-2.68 12.24-6.11 17.23-10.81 14.32-23.53 27.05-35.42 40.45-12.32 13.3-22.54 28.35-32.43 43.49-6.98 11.1-13.89 22.42-18.23 34.86-1.25 4.23-2.79 9-.82 13.25 1.78 3.4 6.25 3.71 9.62 3.17 11.93-2.04 22.38-8.71 32.12-15.56 9.86-7.04 19.07-14.95 27.91-23.23 1.66-1.61 3.64-3.1 4.46-5.35 22.82-59.23 45.61-118.47 68.43-177.7 2.4-6.42.96-13.37.41-19.98-.49-4.15 3-7.64 6.79-8.62m.27 7.45c.89 7.61 1.95 15.6-.53 23.03C789 186.4 756.19 272 723.28 357.56c-2.49 5.84-3.93 12.28-2.98 18.64 1.52 13.07 11.4 24.71 24.11 28.21 10.43 3.07 22.26.49 30.56-6.5 5.18-4.17 8.6-10.09 10.84-16.26 32.87-85.51 65.75-171.02 98.63-256.53 3.19-7.25 9.56-12.36 15.1-17.77-3.84-6.7-10.69-10.8-17.15-14.62-13.46-7.45-28.1-13-43.29-15.58-5.51-.74-11.38-1.51-16.67.65z"/><path d="M835.25 84.21c2.74-1.04 5.76-.76 8.62-.43 7.84 1.03 15.41 3.56 22.67 6.63 5.81 2.58 11.58 5.51 16.4 9.71 1.6 1.49 3.4 3.4 3.01 5.78-2.47 2.85-6.75 2.07-10.07 1.82-11.11-1.57-21.83-5.56-31.61-10.99-3.87-2.39-8.17-4.77-10.44-8.87-.99-1.28.04-3.17 1.42-3.65zm-356.43 52.62c7.28-2.84 15.41-4.5 23.13-2.54 5.95 1.46 10.95 6.51 11.87 12.64 1.4 8.13-1.9 16.16-5.97 23.03-7.93 13.01-19.87 22.85-31.82 32-13.24 9.85-27.17 18.89-42.15 25.87-1.89.78-4.64 2.19-6.26.2-.12-2.19 2.08-2.94 3.66-3.79 16.31-7.76 31.2-18.24 45.16-29.64 9.84-8.16 19.06-17.27 26.17-27.95 2.11-3.5 4.5-7.32 4.17-11.56-.41-3.08-4.23-3.82-6.76-3.2-8.91 1.84-16.58 7.15-23.88 12.32-17.22 12.94-31.88 28.9-45.8 45.24-15.55 18.54-29.92 38.09-42.83 58.56 9.71-11.43 20.41-22.51 33.87-29.49 7.93-4.22 17.22-6.85 26.2-4.94 5.51 1.14 10.71 5.42 11.31 11.27.6 6.55-2.1 12.96-5.81 18.23-7.67 10.66-19.71 17.17-32.1 20.77-10.42 3-21.76 5.32-32.44 2.21 10.08 11.86 23.13 21.31 37.68 26.89 7.01 2.67 16.05 4 21.96-1.71 2.29-1.35 1.31-5.22 4.16-5.81.67 7.1-5.69 12.06-11.74 14.08-11.49 3.83-24.18 3.11-35.64-.48-12.82-4.25-25.23-11.91-32.32-23.71-4.18 11.09-7.37 22.73-7.64 34.66.07 4.79.4 9.87 2.98 14.07.45 1.06 2.13 3.17 0 3.63-6.51-3.88-11.1-10.95-11.75-18.54-1.52-16.5 3.45-32.73 9.26-47.97-14.33 13.26-28.73 26.77-45.49 36.96-12.86 7.78-27.7 13.39-42.95 12.32-8.49-.54-17.47-3.76-22.52-10.97-4.89-6.87-4.68-15.9-3.07-23.82 3.44-15.97 14.51-29.35 27.8-38.39 14.16-9.54 31.58-15.2 48.73-12.88 5.76.91 12.14 3.14 15.08 8.57 2.6 4.93 1.1 10.87-1.8 15.3-4.76 7.34-12.42 12.24-20.28 15.72-8.56 3.58-17.67 6.13-26.97 6.56-2.21.22-4.32-.46-6.22-1.52 3.6-2.11 7.99-1.19 11.91-2.31 11.43-2.69 23.18-6.79 31.65-15.28 3.12-3.3 6.24-8.26 4.08-12.86-2.14-4.5-7.86-5.6-12.36-4.9-9.05 1.43-16.69 7.12-23.37 13.07-9.91 9.27-18.54 20.66-22.02 33.97-1.68 6.29-1.39 14.18 3.93 18.71 5.18 4.22 12.5 3.47 18.5 1.7 12.24-3.87 23.05-11.09 33.46-18.42 10.65-7.86 21.27-16.04 29.72-26.32 2.44-2.94 4.87-5.86 7.27-8.83 2.36-2.89 3.53-6.5 5.19-9.79 12.59-26.72 28.21-52.11 47.53-74.51 7.33-8.64 15.34-16.67 23.48-24.55 9.39-8.95 19.94-16.99 32.05-21.87m-59.42 110.6c-8.64 3.7-15.77 10.04-22.53 16.42-4.71 4.52-9.39 9.11-13.59 14.12 1.23 3.37 3.91 6.26 7.74 6.26 10.8.51 21.32-3.51 30.75-8.44 6.83-3.79 13.32-9.45 15.53-17.2 1.14-3.98.41-9.09-3.32-11.45-4.43-2.86-10.04-1.58-14.58.29zm-157.96-42.69c3.52-1.07 8.01-.58 10.29 2.61 2.68 3.84 1.46 8.97-.65 12.77-3.39 5.95-10.1 10.84-17.21 9.75-4.14-.53-6.96-4.72-6.39-8.76.87-7.52 6.86-14.07 13.96-16.37z"/><path d="M579.61 216.51c4.25-4.6 12.8-5.01 16.95-.09 1.88 2.08 2.2 6.04-.52 7.56-4.09 2.12-9.12-.6-13.06 2.04-5.38 3.4-8.23 9.48-10.61 15.14-7.05 17.88-11.46 36.68-18.68 54.51-12.02 31.27-31.38 60.32-58.25 80.69-17.19 12.94-37.72 22.42-59.45 23.45-14.64.58-30.21-1.72-42.36-10.46-10.16-7.26-16.45-19.02-18.25-31.24-.74-1.66.86-4.21 2.57-2.32 1.7 7 3.92 14.03 8.36 19.83 9.28 13.04 25.8 20.14 41.64 18.66 15.86-1.35 30.42-8.99 43.04-18.29 26.03-19.56 45.34-46.45 61.92-74.13 9.07-15.18 17.44-30.79 25.45-46.56-11.64 17.04-24.72 33.2-39.86 47.26-6.89 6.25-14.22 12.35-22.9 15.93-5.95 2.44-13.45 2.75-18.78-1.27-5-3.91-5.41-11-4.28-16.76 1.31-8.56 6.09-15.98 11.02-22.89 6.4-8.83 13.5-17.11 20.64-25.35 1.54-1.8 3.02-3.84 3.28-6.27 0-1.61-1.26-2.51-2.73-2.68-3.97.3-7.31 2.74-10.41 5.02-13.86 10.36-25.71 23.06-38.76 34.36-1.14.65-2.33 2.39-3.78 1.41-1.15-1.66.47-3.54 1.67-4.64 9.84-8.47 18.56-18.13 27.91-27.13 6.35-5.92 12.86-12.43 21.51-14.72 5.78-1.46 12.48-1.43 17.54 2.1 4.35 2.9 6.51 8.32 6.24 13.44-.32 6.99-3.71 13.36-7.47 19.09-5.81 9.09-13.07 17.17-18.67 26.39-1.63 2.89-3.49 5.92-3.55 9.34 1.14 2.53 4.33 1.07 6.21.3 9.89-4.89 17.48-13.18 24.94-21.09 12.73-13.76 24.49-28.41 35.35-43.69 6.49-8.31 8.64-19.3 16.13-26.94zm-344.7 25.53c.7-1.14 1.24-2.6 2.85-2.59 5.25-.24 9.78 3.69 11.27 8.55 2.64 8.42 1.37 17.47-.58 25.9-3.09 12.07-8.17 23.54-14.19 34.41-8.47 15.31-18.72 29.59-30 42.94-11.71 14.17-26.46 25.66-42.52 34.51-15.53 8.37-32.93 14.55-50.8 13.75-15.42-.32-31.87-4.96-42.28-16.99-6.53-7.69-10.97-17.69-11.03-27.85.63.27 1.89.82 2.53 1.09 1.23 3.52 1.72 7.28 3.31 10.69 6.05 14.85 20.61 25.65 36.53 27.34 11.04 1.56 21.95-2.25 31.68-7.15 16.11-8.42 30.19-20.23 42.97-33.06 10.88-10.91 20.63-22.91 29.45-35.54 10.85-15.62 20.99-31.79 29.24-48.95-4.8 5.27-9.96 10.2-15.68 14.46-1.57-1.01-2.96-3.48-.91-4.8 8.9-7.77 17.94-16.46 21.97-27.86 1.66-3.57-.37-7.39-3.81-8.85z"/><path fill="#c00" d="M825.66 215.56c9.71-5.18 17.54-13.14 25.04-21.06-23.42 61.27-47.04 122.47-70.52 183.72-1.31 3.48-2.59 7.06-4.82 10.09-6.15 8.67-17.75 13.06-28.09 10.46-11.33-2.54-20.21-12.99-21.14-24.53-.68-5.3.95-10.5 2.97-15.32 14.65-37.96 29.22-75.95 43.81-113.94 1.07-2.99 3.26-5.37 5.36-7.69 6.19-6.66 13.99-12.04 22.84-14.41 8.23-2.24 16.92-3.25 24.55-7.32m-40.11 29.07c-3.51 1.65-.26 6.98 2.79 4.67 2.94-1.71-.03-6.4-2.79-4.67m18.63 19.58c-2.8.96-3.52 5-1.24 6.89 1.92 2.14 5.73 1.17 6.75-1.42 1.67-3.18-2.36-7.24-5.51-5.47m-29 20.94c-5.41 1.01-8.41 8.09-4.91 12.51 3.23 5.1 11.78 4.16 13.91-1.47 2.78-5.64-2.97-12.56-9-11.04m-13.02 19.04c-2.84.88-3.78 5.09-1.4 7 2.22 2.46 6.57.8 6.98-2.37.59-3.01-2.69-5.8-5.58-4.63m17.15 34.15c-2.92 2.1.56 6.67 3.42 4.42 2.73-2.14-.67-6.64-3.42-4.42z"/></svg>

<?xml version="1.0" encoding="UTF-8" ?>
<!DOCTYPE svg PUBLIC "-//W3C//DTD SVG 1.1//EN" "http://www.w3.org/Graphics/SVG/1.1/DTD/svg11.dtd">
<svg viewBox="0 0 960 489" version="1.1" xmlns="http://www.w3.org/2000/svg">
<g id="#000000ff">
<path fill="#000000" opacity="1.00" d=" M 822.16 70.35 C 828.99 68.40 836.22 69.43 843.11 70.57 C 857.37 73.31 871.15 78.40 883.95 85.21 C 891.16 89.25 898.48 93.62 903.81 100.07 C 906.63 103.34 908.27 108.59 905.36 112.32 C 900.58 117.49 894.35 121.72 891.46 128.35 C 858.52 214.11 825.47 299.83 792.55 385.60 C 788.89 396.10 780.70 404.86 770.59 409.43 C 760.41 414.04 748.33 414.26 737.99 410.01 C 728.56 406.19 720.76 398.62 716.54 389.38 C 711.55 378.75 711.49 365.99 716.26 355.27 C 724.93 332.72 733.66 310.19 742.29 287.62 C 730.04 300.03 717.16 312.15 701.96 320.90 C 692.90 326.02 682.53 329.96 671.95 328.55 C 666.83 327.92 661.52 325.94 658.40 321.61 C 654.47 316.30 654.52 309.22 655.53 302.97 C 656.84 294.81 660.10 287.15 663.48 279.66 C 649.58 293.49 635.24 307.47 617.61 316.47 C 607.66 321.52 595.59 324.54 584.85 320.14 C 578.68 317.79 574.98 311.35 574.81 304.93 C 574.37 293.74 578.72 283.06 583.32 273.08 C 578.71 277.29 574.76 282.68 568.94 285.25 C 566.09 285.95 566.63 282.34 568.32 281.31 C 578.98 272.31 588.27 261.80 596.77 250.75 C 612.27 230.35 627.14 209.44 640.60 187.63 C 643.35 183.06 646.50 178.43 647.10 172.99 C 647.30 171.47 646.82 169.72 645.11 169.43 C 640.41 170.39 636.58 173.86 631.70 174.20 C 632.08 171.15 635.09 169.83 637.36 168.33 C 645.55 163.48 654.50 159.92 663.73 157.62 C 669.47 156.27 675.78 155.31 681.38 157.68 C 684.60 158.95 686.09 162.72 685.39 165.98 C 684.00 173.20 679.25 179.10 674.77 184.70 C 661.40 200.98 646.24 215.70 632.81 231.94 C 622.90 244.86 613.69 258.33 605.31 272.30 C 600.41 280.79 595.54 289.42 592.61 298.82 C 591.57 302.66 590.36 307.00 592.20 310.79 C 594.10 314.26 598.64 314.62 602.12 313.90 C 614.33 311.78 624.95 304.82 634.87 297.76 C 648.88 287.35 662.41 275.99 673.14 262.12 C 690.63 239.61 707.17 216.31 722.07 192.00 C 724.73 187.47 727.91 182.53 727.14 177.02 C 726.39 176.03 725.44 175.73 724.28 176.12 C 719.91 177.10 716.28 180.91 711.58 180.30 C 713.41 176.51 717.54 174.90 720.94 172.85 C 730.36 168.00 740.48 164.08 751.05 162.81 C 756.12 162.49 763.44 162.57 765.43 168.34 C 766.64 174.67 762.75 180.58 759.32 185.57 C 748.51 199.89 735.79 212.62 723.90 226.02 C 711.58 239.32 701.36 254.37 691.47 269.51 C 684.49 280.61 677.58 291.93 673.24 304.37 C 671.99 308.60 670.45 313.37 672.42 317.62 C 674.20 321.02 678.67 321.33 682.04 320.79 C 693.97 318.75 704.42 312.08 714.16 305.23 C 724.02 298.19 733.23 290.28 742.07 282.00 C 743.73 280.39 745.71 278.90 746.53 276.65 C 769.35 217.42 792.14 158.18 814.96 98.95 C 817.36 92.53 815.92 85.58 815.37 78.97 C 814.88 74.82 818.37 71.33 822.16 70.35 M 822.43 77.80 C 823.32 85.41 824.38 93.40 821.90 100.83 C 789.00 186.40 756.19 272.00 723.28 357.56 C 720.79 363.40 719.35 369.84 720.30 376.20 C 721.82 389.27 731.70 400.91 744.41 404.41 C 754.84 407.48 766.67 404.90 774.97 397.91 C 780.15 393.74 783.57 387.82 785.81 381.65 C 818.68 296.14 851.56 210.63 884.44 125.12 C 887.63 117.87 894.00 112.76 899.54 107.35 C 895.70 100.65 888.85 96.55 882.39 92.73 C 868.93 85.28 854.29 79.73 839.10 77.15 C 833.59 76.41 827.72 75.64 822.43 77.80 Z" />
<path fill="#000000" opacity="1.00" d=" M 835.25 84.21 C 837.99 83.17 841.01 83.45 843.87 83.78 C 851.71 84.81 859.28 87.34 866.54 90.41 C 872.35 92.99 878.12 95.92 882.94 100.12 C 884.54 101.61 886.34 103.52 885.95 105.90 C 883.48 108.75 879.20 107.97 875.88 107.72 C 864.77 106.15 854.05 102.16 844.27 96.73 C 840.40 94.34 836.10 91.96 833.83 87.86 C 832.84 86.58 833.87 84.69 835.25 84.21 Z" />
<path fill="#000000" opacity="1.00" d=" M 478.82 136.83 C 486.10 133.99 494.23 132.33 501.95 134.29 C 507.90 135.75 512.90 140.80 513.82 146.93 C 515.22 155.06 511.92 163.09 507.85 169.96 C 499.92 182.97 487.98 192.81 476.03 201.96 C 462.79 211.81 448.86 220.85 433.88 227.83 C 431.99 228.61 429.24 230.02 427.62 228.03 C 427.50 225.84 429.70 225.09 431.28 224.24 C 447.59 216.48 462.48 206.00 476.44 194.60 C 486.28 186.44 495.50 177.33 502.61 166.65 C 504.72 163.15 507.11 159.33 506.78 155.09 C 506.37 152.01 502.55 151.27 500.02 151.89 C 491.11 153.73 483.44 159.04 476.14 164.21 C 458.92 177.15 444.26 193.11 430.34 209.45 C 414.79 227.99 400.42 247.54 387.51 268.01 C 397.22 256.58 407.92 245.50 421.38 238.52 C 429.31 234.30 438.60 231.67 447.58 233.58 C 453.09 234.72 458.29 239.00 458.89 244.85 C 459.49 251.40 456.79 257.81 453.08 263.08 C 445.41 273.74 433.37 280.25 420.98 283.85 C 410.56 286.85 399.22 289.17 388.54 286.06 C 398.62 297.92 411.67 307.37 426.22 312.95 C 433.23 315.62 442.27 316.95 448.18 311.24 C 450.47 309.89 449.49 306.02 452.34 305.43 C 453.01 312.53 446.65 317.49 440.60 319.51 C 429.11 323.34 416.42 322.62 404.96 319.03 C 392.14 314.78 379.73 307.12 372.64 295.32 C 368.46 306.41 365.27 318.05 365.00 329.98 C 365.07 334.77 365.40 339.85 367.98 344.05 C 368.43 345.11 370.11 347.22 367.98 347.68 C 361.47 343.80 356.88 336.73 356.23 329.14 C 354.71 312.64 359.68 296.41 365.49 281.17 C 351.16 294.43 336.76 307.94 320.00 318.13 C 307.14 325.91 292.30 331.52 277.05 330.45 C 268.56 329.91 259.58 326.69 254.53 319.48 C 249.64 312.61 249.85 303.58 251.46 295.66 C 254.90 279.69 265.97 266.31 279.26 257.27 C 293.42 247.73 310.84 242.07 327.99 244.39 C 333.75 245.30 340.13 247.53 343.07 252.96 C 345.67 257.89 344.17 263.83 341.27 268.26 C 336.51 275.60 328.85 280.50 320.99 283.98 C 312.43 287.56 303.32 290.11 294.02 290.54 C 291.81 290.76 289.70 290.08 287.80 289.02 C 291.40 286.91 295.79 287.83 299.71 286.71 C 311.14 284.02 322.89 279.92 331.36 271.43 C 334.48 268.13 337.60 263.17 335.44 258.57 C 333.30 254.07 327.58 252.97 323.08 253.67 C 314.03 255.10 306.39 260.79 299.71 266.74 C 289.80 276.01 281.17 287.40 277.69 300.71 C 276.01 307.00 276.30 314.89 281.62 319.42 C 286.80 323.64 294.12 322.89 300.12 321.12 C 312.36 317.25 323.17 310.03 333.58 302.70 C 344.23 294.84 354.85 286.66 363.30 276.38 C 365.74 273.44 368.17 270.52 370.57 267.55 C 372.93 264.66 374.10 261.05 375.76 257.76 C 388.35 231.04 403.97 205.65 423.29 183.25 C 430.62 174.61 438.63 166.58 446.77 158.70 C 456.16 149.75 466.71 141.71 478.82 136.83 M 419.40 247.43 C 410.76 251.13 403.63 257.47 396.87 263.85 C 392.16 268.37 387.48 272.96 383.28 277.97 C 384.51 281.34 387.19 284.23 391.02 284.23 C 401.82 284.74 412.34 280.72 421.77 275.79 C 428.60 272.00 435.09 266.34 437.30 258.59 C 438.44 254.61 437.71 249.50 433.98 247.14 C 429.55 244.28 423.94 245.56 419.40 247.43 Z" />
<path fill="#000000" opacity="1.00" d=" M 261.44 204.74 C 264.96 203.67 269.45 204.16 271.73 207.35 C 274.41 211.19 273.19 216.32 271.08 220.12 C 267.69 226.07 260.98 230.96 253.87 229.87 C 249.73 229.34 246.91 225.15 247.48 221.11 C 248.35 213.59 254.34 207.04 261.44 204.74 Z" />
<path fill="#000000" opacity="1.00" d=" M 579.61 216.51 C 583.86 211.91 592.41 211.50 596.56 216.42 C 598.44 218.50 598.76 222.46 596.04 223.98 C 591.95 226.10 586.92 223.38 582.98 226.02 C 577.60 229.42 574.75 235.50 572.37 241.16 C 565.32 259.04 560.91 277.84 553.69 295.67 C 541.67 326.94 522.31 355.99 495.44 376.36 C 478.25 389.30 457.72 398.78 435.99 399.81 C 421.35 400.39 405.78 398.09 393.63 389.35 C 383.47 382.09 377.18 370.33 375.38 358.11 C 374.64 356.45 376.24 353.90 377.95 355.79 C 379.65 362.79 381.87 369.82 386.31 375.62 C 395.59 388.66 412.11 395.76 427.95 394.28 C 443.81 392.93 458.37 385.29 470.99 375.99 C 497.02 356.43 516.33 329.54 532.91 301.86 C 541.98 286.68 550.35 271.07 558.36 255.30 C 546.72 272.34 533.64 288.50 518.50 302.56 C 511.61 308.81 504.28 314.91 495.60 318.49 C 489.65 320.93 482.15 321.24 476.82 317.22 C 471.82 313.31 471.41 306.22 472.54 300.46 C 473.85 291.90 478.63 284.48 483.56 277.57 C 489.96 268.74 497.06 260.46 504.20 252.22 C 505.74 250.42 507.22 248.38 507.48 245.95 C 507.48 244.34 506.22 243.44 504.75 243.27 C 500.78 243.57 497.44 246.01 494.34 248.29 C 480.48 258.65 468.63 271.35 455.58 282.65 C 454.44 283.30 453.25 285.04 451.80 284.06 C 450.65 282.40 452.27 280.52 453.47 279.42 C 463.31 270.95 472.03 261.29 481.38 252.29 C 487.73 246.37 494.24 239.86 502.89 237.57 C 508.67 236.11 515.37 236.14 520.43 239.67 C 524.78 242.57 526.94 247.99 526.67 253.11 C 526.35 260.10 522.96 266.47 519.20 272.20 C 513.39 281.29 506.13 289.37 500.53 298.59 C 498.90 301.48 497.04 304.51 496.98 307.93 C 498.12 310.46 501.31 309.00 503.19 308.23 C 513.08 303.34 520.67 295.05 528.13 287.14 C 540.86 273.38 552.62 258.73 563.48 243.45 C 569.97 235.14 572.12 224.15 579.61 216.51 Z" />
<path fill="#000000" opacity="1.00" d=" M 234.91 242.04 C 235.61 240.90 236.15 239.44 237.76 239.45 C 243.01 239.21 247.54 243.14 249.03 248.00 C 251.67 256.42 250.40 265.47 248.45 273.90 C 245.36 285.97 240.28 297.44 234.26 308.31 C 225.79 323.62 215.54 337.90 204.26 351.25 C 192.55 365.42 177.80 376.91 161.74 385.76 C 146.21 394.13 128.81 400.31 110.94 399.51 C 95.52 399.19 79.07 394.55 68.66 382.52 C 62.13 374.83 57.69 364.83 57.63 354.67 C 58.26 354.94 59.52 355.49 60.16 355.76 C 61.39 359.28 61.88 363.04 63.47 366.45 C 69.52 381.30 84.08 392.10 100.00 393.79 C 111.04 395.35 121.95 391.54 131.68 386.64 C 147.79 378.22 161.87 366.41 174.65 353.58 C 185.53 342.67 195.28 330.67 204.10 318.04 C 214.95 302.42 225.09 286.25 233.34 269.09 C 228.54 274.36 223.38 279.29 217.66 283.55 C 216.09 282.54 214.70 280.07 216.75 278.75 C 225.65 270.98 234.69 262.29 238.72 250.89 C 240.38 247.32 238.35 243.50 234.91 242.04 Z" />
</g>
<g id="#cc0000ff">
<path fill="#cc0000" opacity="1.00" d=" M 825.66 215.56 C 835.37 210.38 843.20 202.42 850.70 194.50 C 827.28 255.77 803.66 316.97 780.18 378.22 C 778.87 381.70 777.59 385.28 775.36 388.31 C 769.21 396.98 757.61 401.37 747.27 398.77 C 735.94 396.23 727.06 385.78 726.13 374.24 C 725.45 368.94 727.08 363.74 729.10 358.92 C 743.75 320.96 758.32 282.97 772.91 244.98 C 773.98 241.99 776.17 239.61 778.27 237.29 C 784.46 230.63 792.26 225.25 801.11 222.88 C 809.34 220.64 818.03 219.63 825.66 215.56 M 785.55 244.63 C 782.04 246.28 785.29 251.61 788.34 249.30 C 791.28 247.59 788.31 242.90 785.55 244.63 M 804.18 264.21 C 801.38 265.17 800.66 269.21 802.94 271.10 C 804.86 273.24 808.67 272.27 809.69 269.68 C 811.36 266.50 807.33 262.44 804.18 264.21 M 775.18 285.15 C 769.77 286.16 766.77 293.24 770.27 297.66 C 773.50 302.76 782.05 301.82 784.18 296.19 C 786.96 290.55 781.21 283.63 775.18 285.15 M 762.16 304.19 C 759.32 305.07 758.38 309.28 760.76 311.19 C 762.98 313.65 767.33 311.99 767.74 308.82 C 768.33 305.81 765.05 303.02 762.16 304.19 M 779.31 338.34 C 776.39 340.44 779.87 345.01 782.73 342.76 C 785.46 340.62 782.06 336.12 779.31 338.34 Z" />
</g>
</svg>
